X:1
T:Coming up the Road
T:Coming up the Road
T:Thoro Harris
T:Thoro Harris, 1919
T:Public Domain Courtesy of the Cyber Hymnal™
C:Thoro Harris
Z:Public Domain
Z:Courtesy of the Cyber Hymnal™
%%score ( 1 2 ) 3
L:1/8
Q:1/4=93
M:4/4
K:F
V:1 treble 
V:2 treble 
V:3 bass 
V:1
 [Fc] | [FA][FA][FA][Fc] [Fc][Fc][Fc][CF] | [FA][FA] [GB]/[GB]/[Fc]/[Fc]/ [EG]3 [EG] | %3
w: 1.~When|Da- vid danced be- fore the Lord, The|ark was com- ing up the road; His|
w: 2.~I|do be- lieve with- out a doubt— The|ark is com- ing up the road— God’s|
w: 3.~Sing|on, pray on, we’re gain- ing ground; The|ark is com- ing up the road; The|
 [EG][EG][CE][DF] [EG][EG][CE][Ec] | [Ec][Ec] [GB]/[GB]/[EG]/[EG]/ F3 ||"^Refrain" !fermata![Fc] | %6
w: wife de- spised him in her heart; The|ark was com- ing up the road.||
w: child- ren have a right to shout— The|ark is com- ing up the road.|It’s|
w: pow’r of God is com- ing down; The|ark is com- ing up the road.||
 [Ac] [FA]2 [CF]/[CF]/ [FA] [FA]2 [CF] | [FA][FA] [GB]/[GB]/[FA]/[FA]/ [EG]3 [GB] | %8
w: ||
w: com- ing, hal- le- lu- jah! The|ark is com- ing up the road; It’s|
w: ||
 [GB] [EG]2 [CE]/[CE]/ [EG] [EG]2 [EG][Ec][Ec][GB]/[GB]/[EG]/[EG]/ F3 |] %9
w: |
w: com- ing, hal- le- lu- jah! The ark is com- ing up the road.|
w: |
V:2
 x | x8 | x8 | x8 | x4 F3 || x | x8 | x8 | x12 F3 |] %9
V:3
 [F,A,] | [F,C][C,C][F,C][F,A,] [F,C][C,C][F,C][F,A,] | %2
 [F,C][F,C] [E,C]/[E,C]/[F,C]/[F,C]/ [C,C]3 [C,C] | %3
 [C,B,][C,B,][C,G,][C,G,] [C,B,][C,B,][C,G,][C,G,] | %4
 [C,G,][C,G,] [C,C]/[C,C]/[C,B,]/[C,B,]/ [F,A,]3 || !fermata![F,A,] | %6
 [F,C] [F,C]2 [F,A,]/[F,A,]/ [F,C] [F,C]2 [F,A,] | %7
 [F,C][F,C] [E,C]/[E,C]/[F,C]/[F,C]/ [C,C]3 [C,C] | %8
 [C,C] [C,B,]2 [C,G,]/[C,G,]/ [C,B,] [C,B,]2 [C,B,][C,G,][C,G,][C,C]/[C,C]/[C,B,]/[C,B,]/ [F,A,]3 |] %9

